src/helpers/heroicons/outline/currency-pound.svg

<svg width="24" height="24" viewBox="0 0 24 24" fill="none" xmlns="http://www.w3.org/2000/svg">
<path d="M14.1213 7.62877C12.9497 6.45719 11.0503 6.45719 9.87868 7.62877C9.37424 8.13321 9.08699 8.7726 9.01694 9.43073C8.9944 9.64251 9.01512 9.85582 9.04524 10.0667L9.5512 13.6084C9.68065 14.5146 9.5307 15.4386 9.12135 16.2573L9 16.5L10.5385 15.9872C11.0003 15.8332 11.4997 15.8332 11.9615 15.9872L12.6158 16.2053C13.182 16.394 13.7999 16.3501 14.3336 16.0832L15 15.75M8.25 12H12M21 12C21 16.9706 16.9706 21 12 21C7.02944 21 3 16.9706 3 12C3 7.02944 7.02944 3 12 3C16.9706 3 21 7.02944 21 12Z"  stroke-width="1.5" stroke-linecap="round" stroke-linejoin="round"/>
</svg>

<svg xmlns="http://www.w3.org/2000/svg" fill="none" viewBox="0 0 24 24" stroke-width="1.5" stroke="currentColor" aria-hidden="true" data-slot="icon">
  <path stroke-linecap="round" stroke-linejoin="round" d="M14.121 7.629A3 3 0 0 0 9.017 9.43c-.023.212-.002.425.028.636l.506 3.541a4.5 4.5 0 0 1-.43 2.65L9 16.5l1.539-.513a2.25 2.25 0 0 1 1.422 0l.655.218a2.25 2.25 0 0 0 1.718-.122L15 15.75M8.25 12H12m9 0a9 9 0 1 1-18 0 9 9 0 0 1 18 0Z"/>
</svg>
